X:1
T:Lord Rendal
M:3/4
L:1/4
K:C
 G3.99999962500005/11.9999985000002 G3.99999962500005/11.9999985000002 G3.99999962500005/11.9999985000002|\
 A A A|
M:4/4
 B d2 d|
M:3/4
 B A G| A2 G| A G A|
M:4/4
 B d2 d/2B/2|
M:3/4
 A G B| A2 D/2E/2| G A B| A2 A/2G/2| E D E| D2||
